icons/lines/tether--usdt-.svg

<svg xmlns="http://www.w3.org/2000/svg" width="24" height="24" viewBox="0 0 24 24" fill="none" stroke="currentColor" stroke-width="2" stroke-linecap="round" stroke-linejoin="round" >
  <path d="M7.4702 3.34998H16.5302C17.5902 3.34998 18.8402 4.11998 19.3102 5.06998L21.7102 9.88998C22.2902 11.05 21.9702 12.7 21.0202 13.57L14.0902 19.86C12.9402 20.9 11.0702 20.9 9.9202 19.86L2.9902 13.57C2.0302 12.7 1.7202 11.05 2.3002 9.88998L4.7002 5.06998C5.1602 4.11998 6.4102 3.34998 7.4702 3.34998Z" stroke-miterlimit="10"/>
  <path d="M12 14.5V8.5" stroke-miterlimit="10"/>
  <path d="M8 8.5H16" stroke-miterlimit="10"/>
  </svg>

<svg xmlns="http://www.w3.org/2000/svg" width="24" height="24" viewBox="0 0 24 24" fill="none" stroke="currentColor" stroke-width="2" stroke-linecap="round" stroke-linejoin="round">
  <path d="M12 14.5v-6" />
  <path d="M16.53 3.35c1.06 0 2.31.77 2.78 1.72l2.4 4.82c.58 1.16.26 2.81-.69 3.68l-6.93 6.29c-1.15 1.04-3.02 1.04-4.17 0l-6.93-6.29c-.96-.87-1.27-2.52-.69-3.68l2.4-4.82c.46-.95 1.71-1.72 2.77-1.72z" />
  <path d="M8 8.5h8" />
</svg>
